X:71
T:The Humours of Sarajevo
R:reel
C: 1993, 2010 L.E. McCullough 
M:4/4
L:1/8
K:Dmix
|:~D2FD F~A3|~c3A ~B3G|~A3 A AGFD|~E3F GFEF|
~D2FD F~A3|~c3d ~B3d|~A3d AGFD|~E3F ~D3A:| 
|:~c3d ~e3d|~c3A B~G3|~c3d e2ed|edBG ~A3B|
~c3d ~e3d|~c3A B~G3|e~g3 ageg|edBG ~A3A:|
 

